X:1
T:Title
%%score { ( 1 3 ) | ( 2 4 ) }
L:1/8
Q:1/4=100
M:4/4
K:F
V:1 treble nm="Grand Piano"
V:3 treble 
V:2 bass 
V:4 bass 
V:1
 .F2 .E2 .F2 .G2 | .A2 .[DGB]2 [EG]3- [EG]/-[B,EG]/ | .c2 .c2 .c2 .[G^c]2 | .[Fd]2 .[Fd]2 z2 C>B, | %4
w: Theme~from~Beethoven * * *||||
 .F2 .E2 .F2 .G2 | .A2 .[F=B]2 [Gc]4 | .[Ad]2 .[A_e]2 [G=e]3 [Ge] | .[=Bf]2 .[Bd]2 c4 | %8
w: ||||
 c2 B2 A2 [FA]2 | [Ff]2 [F_e]2 [Fd]4 | d2 c2 B2 [CA]2 | [B,DG]2 [_A,DF]2 [G,E]3- [G,E]/-[G,B,E]/ | %12
w: ||||
 .F2 .E2 .F2 .G2 | z4 z2 c2- | c2 z2 z4 | .[CA]2 .[EG]2 F4 |] %16
w: ||||
V:2
 .[F,A,C]2 .[G,B,C]2 .[A,C]2 .[E,C]2 | .[F,CF]2 .=B,,2 z2[K:treble] C2 | %2
 .[A,CF]2[K:bass] .[G,B,E]2 .[F,A,F]2 .[E,A,]2 | .[D,A,]2 .[B,,B,]2 [C,B,]4 | %4
 .[F,A,C]2 .[G,B,C]2 .[A,C]2 .[E,C]2 | .[F,C]2 .[D,G,]2 [E,G,]4 | %6
 .[F,C]2 .[^F,C]2[K:treble] [G,C]3 [G,C] | .[G,D]2 .[G,F]2 [CE]4 | %8
 [A,CF]2[K:bass] [G,CE]2 [F,CF]2 [_E,C]2 | [D,B,]2 [C,A,]2 [B,,B,]4 | %10
 [F,B,D]2 [^F,A,D]2 [G,D]2 A,,2 | B,,2 =B,,2 z2 C2 | .[A,C]2 .[G,B,C]2 .[F,A,C]2 .[E,G,C]2 | %13
 z4 z2 C2- | C2 z2 z4 | .[C,F,]2 .[C,B,]2 [F,A,]4 |] %16
V:3
 x8 | z4 C2 z2 | x8 | z4 [EG]4 | x8 | x8 | x8 | x8 | x8 | x8 | x8 | z4 C2 z2 | x8 | %13
 .A2 .[DGB]2 .[CEG]2 z2 | .F,2 .[_Ec]2 .[Dc]2 .[DB]2 | x8 |] %16
V:4
 x8 | z4 C,4[K:treble] | x2[K:bass] x6 | x8 | x8 | x8 | x4[K:treble] x4 | x8 | x2[K:bass] x6 | x8 | %10
 x8 | z4 C,4 | x8 | .[F,CF]2 .B,,2 .C,2 z2 | .A,,2 .[A,,^F,]2 .[B,,G,]2 .[B,,G,]2 | x8 |] %16

